content/static/images/time.svg

<?xml version="1.0" encoding="utf-8"?>
<!-- Generator: Adobe Illustrator 15.0.0, SVG Export Plug-In . SVG Version: 6.00 Build 0)  -->
<!DOCTYPE svg PUBLIC "-//W3C//DTD SVG 1.1//EN" "http://www.w3.org/Graphics/SVG/1.1/DTD/svg11.dtd">
<svg version="1.1"  xmlns="http://www.w3.org/2000/svg" xmlns:xlink="http://www.w3.org/1999/xlink" x="0px" y="0px"
	 width="48px" height="48px" viewBox="0 0 48 48" enable-background="new 0 0 48 48" xml:space="preserve">
<path fill="#546E7A" d="M35.89,17.478c-0.347,0.43-0.977,0.497-1.406,0.149l-3.11-2.515c-0.43-0.348-0.496-0.977-0.149-1.406
	l1.887-2.333c0.348-0.431,0.977-0.497,1.406-0.149l3.11,2.515c0.43,0.348,0.497,0.977,0.149,1.406L35.89,17.478z"/>
<rect x="21" y="9" fill="#455A64" width="6" height="4"/>
<circle fill="#EEEEEE" cx="24" cy="28" r="13.5"/>
<g>
	<path fill="#263238" d="M21.479,28.01c0,1.399,1.142,2.528,2.545,2.511c1.405-0.015,2.54-1.161,2.542-2.565
		c-0.004-1.4-1.143-2.521-2.553-2.506C22.61,25.464,21.472,26.61,21.479,28.01"/>
	<polygon fill="#263238" points="24,16.998 25.715,27.122 22.326,27.156 	"/>
</g>
<path fill="#00ACC1" d="M23.172,27.996c0.003,0.465,0.383,0.84,0.852,0.831c0.466-0.003,0.847-0.386,0.842-0.853
	c0.003-0.465-0.381-0.842-0.848-0.838C23.551,27.143,23.169,27.527,23.172,27.996"/>
<path fill="#00ACC1" d="M24,12c-8.835,0-16,7.165-16,16s7.165,16,16,16s16-7.165,16-16S32.835,12,24,12z M24,41
	c-7.181,0-13-5.819-13-13c0-7.18,5.819-13,13-13s13,5.82,13,13C37,35.181,31.181,41,24,41z"/>
<path fill="#90A4AE" d="M29,9c0,0.553-0.447,1-1,1h-8c-0.553,0-1-0.447-1-1V5c0-0.553,0.447-1,1-1h8c0.553,0,1,0.447,1,1V9z"/>
</svg>

<?xml version="1.0" encoding="UTF-8" standalone="no"?>
<!-- Created with Inkscape (http://www.inkscape.org/) -->

<svg
   xmlns:dc="http://purl.org/dc/elements/1.1/"
   xmlns:cc="http://creativecommons.org/ns#"
   xmlns:rdf="http://www.w3.org/1999/02/22-rdf-syntax-ns#"
   xmlns:svg="http://www.w3.org/2000/svg"
   xmlns="http://www.w3.org/2000/svg"
   xmlns:sodipodi="http://sodipodi.sourceforge.net/DTD/sodipodi-0.dtd"
   xmlns:inkscape="http://www.inkscape.org/namespaces/inkscape"
   width="10.58333mm"
   height="10.58333mm"
   viewBox="0 0 10.58333 10.58333"
   version="1.1"
   id="svg855"
   inkscape:version="0.92.5 (2060ec1f9f, 2020-04-08)"
   sodipodi:docname="time.svg">
  <defs
     id="defs849" />
  <sodipodi:namedview
     id="base"
     pagecolor="#ffffff"
     bordercolor="#666666"
     borderopacity="1.0"
     inkscape:pageopacity="0.0"
     inkscape:pageshadow="2"
     inkscape:zoom="11.2"
     inkscape:cx="6.0386776"
     inkscape:cy="40.489976"
     inkscape:document-units="mm"
     inkscape:current-layer="layer1"
     showgrid="false"
     inkscape:window-width="2388"
     inkscape:window-height="1522"
     inkscape:window-x="2553"
     inkscape:window-y="0"
     inkscape:window-maximized="0">
    <sodipodi:guide
       position="0,0"
       orientation="0,31.999998"
       id="guide1437"
       inkscape:locked="false" />
    <sodipodi:guide
       position="8.4666661,0"
       orientation="-39.999999,0"
       id="guide1439"
       inkscape:locked="false" />
    <sodipodi:guide
       position="8.4666661,10.583333"
       orientation="0,-31.999998"
       id="guide1441"
       inkscape:locked="false" />
    <sodipodi:guide
       position="0,10.583333"
       orientation="39.999999,0"
       id="guide1443"
       inkscape:locked="false" />
  </sodipodi:namedview>
  <metadata
     id="metadata852">
    <rdf:RDF>
      <cc:Work
         rdf:about="">
        <dc:format>image/svg+xml</dc:format>
        <dc:type
           rdf:resource="http://purl.org/dc/dcmitype/StillImage" />
        <dc:title></dc:title>
      </cc:Work>
    </rdf:RDF>
  </metadata>
  <g
     inkscape:label="Layer 1"
     inkscape:groupmode="layer"
     id="layer1"
     transform="translate(-91.772619,-117.83928)">
    <g
       id="g1435"
       transform="matrix(0.26458333,0,0,0.26458333,90.714284,116.78095)">
      <path
         id="path1400"
         d="m 35.89,17.478 c -0.347,0.43 -0.977,0.497 -1.406,0.149 l -3.11,-2.515 c -0.43,-0.348 -0.496,-0.977 -0.149,-1.406 l 1.887,-2.333 c 0.348,-0.431 0.977,-0.497 1.406,-0.149 l 3.11,2.515 c 0.43,0.348 0.497,0.977 0.149,1.406 z"
         inkscape:connector-curvature="0"
         style="fill:#546e7a" />
      <rect
         id="rect1402"
         height="4"
         width="6"
         y="9"
         x="21"
         style="fill:#455a64" />
      <circle
         id="circle1404"
         r="13.5"
         cy="28"
         cx="24"
         style="fill:#eeeeee" />
      <g
         id="g1410">
	<path
   id="path1406"
   d="m 21.479,28.01 c 0,1.399 1.142,2.528 2.545,2.511 1.405,-0.015 2.54,-1.161 2.542,-2.565 -0.004,-1.4 -1.143,-2.521 -2.553,-2.506 -1.403,0.014 -2.541,1.16 -2.534,2.56"
   inkscape:connector-curvature="0"
   style="fill:#263238" />

	<polygon
   id="polygon1408"
   points="24,16.998 25.715,27.122 22.326,27.156 "
   style="fill:#263238" />

</g>
      <path
         id="path1412"
         d="m 23.172,27.996 c 0.003,0.465 0.383,0.84 0.852,0.831 0.466,-0.003 0.847,-0.386 0.842,-0.853 0.003,-0.465 -0.381,-0.842 -0.848,-0.838 -0.467,0.007 -0.849,0.391 -0.846,0.86"
         inkscape:connector-curvature="0"
         style="fill:#00acc1" />
      <path
         id="path1414"
         d="M 24,12 C 15.165,12 8,19.165 8,28 8,36.835 15.165,44 24,44 32.835,44 40,36.835 40,28 40,19.165 32.835,12 24,12 Z m 0,29 c -7.181,0 -13,-5.819 -13,-13 0,-7.18 5.819,-13 13,-13 7.181,0 13,5.82 13,13 0,7.181 -5.819,13 -13,13 z"
         inkscape:connector-curvature="0"
         style="fill:#00acc1" />
      <path
         id="path1416"
         d="m 29,9 c 0,0.553 -0.447,1 -1,1 H 20 C 19.447,10 19,9.553 19,9 V 5 c 0,-0.553 0.447,-1 1,-1 h 8 c 0.553,0 1,0.447 1,1 z"
         inkscape:connector-curvature="0"
         style="fill:#90a4ae" />
    </g>
  </g>
</svg>
